X: 73
T: Missa Incessament / Kyrie
N: Derived from Rue1016a-Missa_Incessament-Kyrie.krn
C: Pierre de la Rue
%%abc-version 2.0
%%abcx-abcm2ps-target-version 5.9.1 (29 Sep 2008)
%%abc-creator hum2abc beta
%%abcx-conversion-date 2019/02/17 08:01:12
%%abc-edited-by Jesse Rodin
%%abc-edited-by Opera Omnia
%%abcx-initial-encoding-date 2012/11/11/
%%humdrum-veritas 646558522
%%humdrum-veritas-data 278499112
%%linebreak <none>
%%barnumbers 0
L: 1/4
M: 4/2
Q: 1/2=120
V: 1 clef=treble
V: 2 clef=treble-8
V: 3 clef=treble-8
V: 4 clef=treble-8
V: 5 clef=bass
K: C
[V:1] G8 | 
[V:2] z8 | 
[V:3] G3AB2c2 | 
[V:4] z8 | 
[V:5] z8 | 
[V:1] E3FD4 | 
[V:2] z8 | 
[V:3] G2c4B2 | 
[V:4] z8 | 
[V:5] z8 | 
[V:1] C2E3FGA | 
[V:2] g8 | 
[V:3] c8 | 
[V:4] z8 | 
[V:5] z8 | 
[V:1] B2c4B2 | 
[V:2] e3fd4 | 
[V:3] z8 | 
[V:4] z8 | 
[V:5] z8 | 
[V:1] c4c2A2- | 
[V:2] c3de2f2- | 
[V:3] A8 | 
[V:4] z8 | 
[V:5] z8 | 
[V:1] A2GFG4 | 
[V:2] fed4^c2 | 
[V:3] F3GE4 | 
[V:4] z8 | 
[V:5] z8 | 
[V:1] F2A2B2d2- | 
[V:2] d8 | 
[V:3] D3EFGA2- | 
[V:4] z8 | 
[V:5] D,8 | 
[V:1] d2cBc4 | 
[V:2] z8 | 
[V:3] AGG4^F2 | 
[V:4] z8 | 
[V:5] B,,3C,A,,4 | 
[V:1] B8 | 
[V:2] d4BcdB | 
[V:3] G4z4 | 
[V:4] G8 | 
[V:5] G,,4z2G,,2 | 
[V:1] z8 | 
[V:2] c2A4^G2 | 
[V:3] z2A2BcdB | 
[V:4] E3FD4 | 
[V:5] A,,2C,2B,,4 | 
[V:1] z8 | 
[V:2] A3Bcde2- | 
[V:3] c3BA2G2 | 
[V:4] C4z2C2 | 
[V:5] A,,8 | 
[V:1] z8 | 
[V:2] e2d4^c2 | 
[V:3] F2D2EFGE | 
[V:4] D2F2E4 | 
[V:5] z8 | 
[V:1] z4d4 | 
[V:2] d4BcdB | 
[V:3] F4F2G2- | 
[V:4] D8 | 
[V:5] z4z2G,,2 | 
[V:1] c2A2BcdB | 
[V:2] c3BGABG | 
[V:3] GFE4D2 | 
[V:4] z8 | 
[V:5] A,,2C,2B,,4 | 
[V:1] c3BA2G2 | 
[V:2] A8 | 
[V:3] E8 | 
[V:4] z4z2C2 | 
[V:5] A,,3B,,C,D,E,2- | 
[V:1] F2D2EFGE | 
[V:2] z8 | 
[V:3] z8 | 
[V:4] D2F2E4 | 
[V:5] E,D,D,4^C,2 | 
[V:1] F2A4d2- | 
[V:2] d8- | 
[V:3] z4z2F2 | 
[V:4] D3EFGA2- | 
[V:5] D,8 | 
[V:1] d2d3cA2 | 
[V:2] d8 | 
[V:3] G2_B2A4 | 
[V:4] AGG4^F2 | 
[V:5] z8 | 
[V:1] B2G2d4 | 
[V:2] d4BcdB | 
[V:3] G8 | 
[V:4] G8 | 
[V:5] z4z2G,,2 | 
[V:1] c2A2BcdB | 
[V:2] c3BGABG | 
[V:3] E3FD4 | 
[V:4] z8 | 
[V:5] A,,2C,2B,,4 | 
[V:1] c3BA2G2 | 
[V:2] A2c2c3B | 
[V:3] E8 | 
[V:4] z4z2C2 | 
[V:5] A,,3B,,C,D,E,2- | 
[V:1] F2D2EFGE | 
[V:2] A2F2G2E2 | 
[V:3] z8 | 
[V:4] D2F2E4 | 
[V:5] E,D,D,4^C,2 | 
[V:1] FEA4d2- | 
[V:2] A4d4- | 
[V:3] z4z2F2 | 
[V:4] D3EFGA2- | 
[V:5] D,8 | 
[V:1] d2cBc4 | 
[V:2] d4z2A2 | 
[V:3] G2_B2A4 | 
[V:4] AGG4^F2 | 
[V:5] B,,2G,,2A,,4 | 
[V:1] B8- | 
[V:2] BGBcd2G2 | 
[V:3] D8- | 
[V:4] G8- | 
[V:5] G,,8- | 
[V:1] B8- | 
[V:2] d8 | 
[V:3] D8- | 
[V:4] G8- | 
[V:5] G,,8- | 
[V:1] B8 ||  
[V:2] d8 ||  
[V:3] D8 ||  
[V:4] G8 ||  
[V:5] G,,8 ||  
[V:1]  [K:C] [K:clef=treble][M:2/1]z8 | 
[V:2]  [K:C] [K:clef=treble-8][M:2/1]d8 | 
[V:3]  [K:C] [K:clef=treble-8][M:2/1]z8 | 
[V:4]  [K:C] [K:clef=treble-8][M:2/1]z8 | 
[V:5]  [K:C] [K:clef=bass][M:2/1]z8 | 
[V:1] z8 | 
[V:2] B4G4 | 
[V:3] G8 | 
[V:4] z8 | 
[V:5] z8 | 
[V:1] z8 | 
[V:2] g8 | 
[V:3] E4C4 | 
[V:4] z8 | 
[V:5] z8 | 
[V:1] A8 | 
[V:2] e4c4 | 
[V:3] c8 | 
[V:4] z8 | 
[V:5] z8 | 
[V:1] F4D4- | 
[V:2] f4f2d2- | 
[V:3] A4F4 | 
[V:4] z8 | 
[V:5] D,8 | 
[V:1] D4d4- | 
[V:2] d2B4G2 | 
[V:3] D8 | 
[V:4] z8 | 
[V:5] B,,4G,,4- | 
[V:1] d4B4 | 
[V:2] G8 | 
[V:3] z8 | 
[V:4] G8 | 
[V:5] G,,4G,4- | 
[V:1] G8 | 
[V:2] z4z2g2- | 
[V:3] G8 | 
[V:4] E4C4- | 
[V:5] G,4E,4 | 
[V:1] c8 | 
[V:2] g2e4c2- | 
[V:3] E4C4 | 
[V:4] C4c4- | 
[V:5] C,4A,,4 | 
[V:1] A4F4 | 
[V:2] c2A4f2- | 
[V:3] c8 | 
[V:4] c4A4 | 
[V:5] z8 | 
[V:1] D3EFGA2- | 
[V:2] fedcd2f2- | 
[V:3] A4F4 | 
[V:4] F4D4 | 
[V:5] A,8 | 
[V:1] A2GFG4 | 
[V:2] fed4^c2 | 
[V:3] D2A4G2 | 
[V:4] z8 | 
[V:5] F,3G,E,4 | 
[V:1] F2A2_B2A2- | 
[V:2] d8- | 
[V:3] A4z4 | 
[V:4] d8 | 
[V:5] D,4G,2F,2 | 
[V:1] AGG4^F2 | 
[V:2] d8 | 
[V:3] z4z2A2 | 
[V:4] B3cA4 | 
[V:5] G,4D,4 | 
[V:1] G2B2c2d2- | 
[V:2] z8 | 
[V:3] B2G2A2G2 | 
[V:4] G4c2B2 | 
[V:5] G,,4z4 | 
[V:1] d2c4B2 | 
[V:2] z4z2d2 | 
[V:3] c2e2d4 | 
[V:4] c4G4 | 
[V:5] z8 | 
[V:1] c8 | 
[V:2] e4c2e2 | 
[V:3] c8 | 
[V:4] C4z4 | 
[V:5] z8 | 
[V:1] z8 | 
[V:2] f3ed2g2- | 
[V:3] z2A2B4 | 
[V:4] z8 | 
[V:5] z8 | 
[V:1] z8 | 
[V:2] g2fed4 | 
[V:3] G2c4B2 | 
[V:4] z8 | 
[V:5] z4z2G,2 | 
[V:1] z8 | 
[V:2] c8- | 
[V:3] c3BA2G2 | 
[V:4] z8 | 
[V:5] A,3G,F,2E,2 | 
[V:1] z8 | 
[V:2] c8 | 
[V:3] A2F2G4 | 
[V:4] z4z2c2 | 
[V:5] F,2D,2E,4 | 
[V:1] z8 | 
[V:2] z8 | 
[V:3] A4z4 | 
[V:4] d3cB2A2 | 
[V:5] D,2F,2G,2A,2- | 
[V:1] z8 | 
[V:2] z8 | 
[V:3] z8 | 
[V:4] B2G2A4 | 
[V:5] A,G,G,4^F,2 | 
[V:1] G8 | 
[V:2] g3fe2d2 | 
[V:3] z8 | 
[V:4] G2B2c2d2- | 
[V:5] G,8- | 
[V:1] G8 | 
[V:2] e2c2d4 | 
[V:3] z4G4 | 
[V:4] dcc4B2 | 
[V:5] G,8 | 
[V:1] G4A2c2- | 
[V:2] c2e2f2g2- | 
[V:3] C4F2E2 | 
[V:4] c8- | 
[V:5] z8 | 
[V:1] cBA2G2AG | 
[V:2] gff4e2 | 
[V:3] F4C4 | 
[V:4] c8 | 
[V:5] z8 | 
[V:1] A8 | 
[V:2] f2c2d2e2- | 
[V:3] F3ED2C2 | 
[V:4] z8 | 
[V:5] z8 | 
[V:1] F3GE4 | 
[V:2] edd4^c2 | 
[V:3] D4A4 | 
[V:4] z8 | 
[V:5] z8 | 
[V:1] D2A,B,CDE2- | 
[V:2] d4z4 | 
[V:3] D2F3EC2 | 
[V:4] z8 | 
[V:5] A,8 | 
[V:1] E2D4^C2 | 
[V:2] z8 | 
[V:3] D4A,4 | 
[V:4] z8 | 
[V:5] F,3G,E,4 | 
[V:1] D8- | 
[V:2] z4z2D2 | 
[V:3] D2F2G2A2- | 
[V:4] d8 | 
[V:5] D,8- | 
[V:1] D8 | 
[V:2] F2G2A4 | 
[V:3] AGG4^F2 | 
[V:4] B3cA4 | 
[V:5] D,8 | 
[V:1] D8- | 
[V:2] B8- | 
[V:3] G8 | 
[V:4] G8- | 
[V:5] G,,8- | 
[V:1] D8 ||  
[V:2] B8 ||  
[V:3] D8 ||  
[V:4] G8 ||  
[V:5] G,,8 ||  
[V:1]  [K:C] [K:clef=treble][M:4/2]z8 | 
[V:2]  [K:C] [K:clef=treble-8][M:4/2]z8 | 
[V:3]  [K:C] [K:clef=treble-8][M:4/2]G8 | 
[V:4]  [K:C] [K:clef=treble-8][M:4/2]z8 | 
[V:5]  [K:C] [K:clef=bass][M:4/2]z8 | 
[V:1] z8 | 
[V:2] z2d2e2f2 | 
[V:3] A2B2c2BA | 
[V:4] z8 | 
[V:5] z8 | 
[V:1] z4z2A2 | 
[V:2] g3fe2d2- | 
[V:3] G2C2E2F2 | 
[V:4] z8 | 
[V:5] z8 | 
[V:1] B2c2d4 | 
[V:2] dcBAB4 | 
[V:3] G2A3GG2 | 
[V:4] z8 | 
[V:5] z8 | 
[V:1] c3BA2G2- | 
[V:2] A4z2d2 | 
[V:3] A2F2A2B2 | 
[V:4] z8 | 
[V:5] z8 | 
[V:1] GFEDE4 | 
[V:2] e2f2g4 | 
[V:3] c2d3^c^c2 | 
[V:4] z8 | 
[V:5] z8 | 
[V:1] D3EFGAB | 
[V:2] f3ed2c2- | 
[V:3] d4z4 | 
[V:4] z8 | 
[V:5] z8 | 
[V:1] AGG4^F2 | 
[V:2] cBAGA4 | 
[V:3] z8 | 
[V:4] z8 | 
[V:5] z4z2D,2 | 
[V:1] G8 | 
[V:2] G2d4e2 | 
[V:3] z4_B4 | 
[V:4] z8 | 
[V:5] E,2F,2G,4 | 
[V:1] z8 | 
[V:2] fedcBAcB | 
[V:3] A4F2GF | 
[V:4] z4z2G2 | 
[V:5] F,3E,D,2C,2- | 
[V:1] z8 | 
[V:2] AGG4^F2 | 
[V:3] EDD4C2 | 
[V:4] A2B2c4 | 
[V:5] C,B,,A,,G,,A,,4 | 
[V:1] z8 | 
[V:2] G4z2c2 | 
[V:3] D4G2A2 | 
[V:4] B3AG2F2- | 
[V:5] G,,4z4 | 
[V:1] z8 | 
[V:2] d2e2f4 | 
[V:3] B2c4B2 | 
[V:4] FEDCD4 | 
[V:5] z8 | 
[V:1] z2G2A2B2 | 
[V:2] e4d2g2- | 
[V:3] c4z2G2 | 
[V:4] C4z4 | 
[V:5] z8 | 
[V:1] c4B3c | 
[V:2] g2^f2g3=f | 
[V:3] A4G4- | 
[V:4] z8 | 
[V:5] z8 | 
[V:1] d2G4FE | 
[V:2] d2e4dc | 
[V:3] G8- | 
[V:4] z8 | 
[V:5] z8 | 
[V:1] D4z2A2 | 
[V:2] B4z2f2 | 
[V:3] G4A4 | 
[V:4] z8 | 
[V:5] z8 | 
[V:1] B3cd2G2- | 
[V:2] g3fd2e2- | 
[V:3] G8- | 
[V:4] z8 | 
[V:5] z8 | 
[V:1] G2FED2G2- | 
[V:2] e2dcB2e2- | 
[V:3] G8 | 
[V:4] z8 | 
[V:5] z8 | 
[V:1] G2FEF4 | 
[V:2] edc3BB2 | 
[V:3] C4D4 | 
[V:4] z8 | 
[V:5] z2G,4F,2 | 
[V:1] E2G2A2G2- | 
[V:2] c4z4 | 
[V:3] C4z4 | 
[V:4] z8 | 
[V:5] G,3E,F,2G,2 | 
[V:1] G2FED4 | 
[V:2] z8 | 
[V:3] z8 | 
[V:4] z2c4B2 | 
[V:5] E,2A,4G,2 | 
[V:1] C4z4 | 
[V:2] z8 | 
[V:3] z8 | 
[V:4] c3AB2c2 | 
[V:5] A,4G,2A,2- | 
[V:1] z4z2G2 | 
[V:2] z8 | 
[V:3] z4G4 | 
[V:4] A2d4^c2 | 
[V:5] A,G,F,2E,4 | 
[V:1] F2A3GFE | 
[V:2] z8 | 
[V:3] A4F4 | 
[V:4] d4c2d2- | 
[V:5] D,4z4 | 
[V:1] D2G4^F2 | 
[V:2] d8- | 
[V:3] G4D4 | 
[V:4] dcB2A4 | 
[V:5] z8 | 
[V:1] G3ABcd2 | 
[V:2] d8 | 
[V:3] G4D4 | 
[V:4] G4z4 | 
[V:5] z2G,4F,2 | 
[V:1] G2c4B2 | 
[V:2] e4d4 | 
[V:3] z8 | 
[V:4] z8 | 
[V:5] G,3E,F,2G,2 | 
[V:1] c4z4 | 
[V:2] c3defg2- | 
[V:3] z8 | 
[V:4] z2c4B2 | 
[V:5] E,2A,4G,2 | 
[V:1] z2c2B2A2 | 
[V:2] g2f2g2f2 | 
[V:3] z8 | 
[V:4] c3AB2c2 | 
[V:5] A,4E,2A,2- | 
[V:1] c2BAG4 | 
[V:2] e2d2e4 | 
[V:3] z4G4 | 
[V:4] A2d4^c2 | 
[V:5] A,G,F,2E,4 | 
[V:1] F2DEFGA2 | 
[V:2] z4z2f2- | 
[V:3] A2G2A2F2 | 
[V:4] d4A2d2- | 
[V:5] D,2G,2F,2D,2 | 
[V:1] D2G4^F2 | 
[V:2] fedcd4 | 
[V:3] G4D4 | 
[V:4] dcB2A4 | 
[V:5] z2G,2F,2D,2 | 
[V:1] G4z2B2 | 
[V:2] B2e2d2B2 | 
[V:3] z2G4G2 | 
[V:4] G2c2B2G2 | 
[V:5] E,4z2G,2 | 
[V:1] A3BG3E | 
[V:2] cdefe4 | 
[V:3] A2F2GABc | 
[V:4] z2c2B2G2 | 
[V:5] F,2E,D,E,4 | 
[V:1] FGABc2A2- | 
[V:2] A8 | 
[V:3] dcz2c3B | 
[V:4] A4z2c2 | 
[V:5] D,E,F,G,A,2F,2 | 
[V:1] AGG4^F2 | 
[V:2] d8- | 
[V:3] GABcd4 | 
[V:4] B2AGA4 | 
[V:5] G,4D,4 | 
[V:1] G8 |]  
[V:2] d8 |]  
[V:3] B8 |]  
[V:4] G8 |]  
[V:5] G,,8 |]  



